X: 2
T: Kék ibolya búra hajtotta fejét
M:4/4
L:1/4
K:D
D>E F D | A/A/ G/F/ | E<D D z |
A A F<D | G/A/ B/G/ | F<E E z |
A A F D | G/A/B/G/ | F/E/B/B/ A z |
D>E F<D | A/A/G/F/ | E<D D z |
W: Kék ibolya, búra hajtotta fejét,
W: Nincsen aki megöntözze a tövét,
W: Szállja le harmat, kék ibolya gyönge tövére,
W: Most kaptam egy igaz, hű szeretőre
W:
W: Még a búza ki sem hányta a fejét
W: Már a madár mind elhordta a szemét
W: Mind elhordta az ő árva, gyenge fiának,
W: A szeretőm mást keresett magának.

